build/img/chart-icon.svg

<svg width="22" height="19" viewBox="0 0 22 19" fill="none" xmlns="http://www.w3.org/2000/svg">
<path fill-rule="evenodd" clip-rule="evenodd" d="M0 1C0 1.55228 0.447715 2 1 2H3.17058L6.2322 8.57892C6.2306 8.58237 6.22901 8.58584 6.22745 8.58932L5.17669 10.9222C4.72307 11.9293 5.17177 13.1135 6.17889 13.5671C6.4371 13.6834 6.71706 13.7435 7.00025 13.7435H17.5021C18.0544 13.7435 18.5021 13.2958 18.5021 12.7435C18.5021 12.1913 18.0544 11.7435 17.5021 11.7435H7.00025L7.66972 10.2572H16.7133L20.939 2.87668C21.2135 2.39739 21.0474 1.7864 20.5681 1.51198C20.0888 1.23757 19.4778 1.40365 19.2034 1.88294L15.5538 8.25721H8.28845L4.44581 0H1C0.447715 0 0 0.447715 0 1ZM10 17C10 18.1046 9.10457 19 8 19C6.89543 19 6 18.1046 6 17C6 15.8954 6.89543 15 8 15C9.10457 15 10 15.8954 10 17ZM16 19C17.1046 19 18 18.1046 18 17C18 15.8954 17.1046 15 16 15C14.8954 15 14 15.8954 14 17C14 18.1046 14.8954 19 16 19Z" fill="#9B8869"/>
</svg>

<svg width="22" height="19" fill="none" xmlns="http://www.w3.org/2000/svg"><path fill-rule="evenodd" clip-rule="evenodd" d="M0 1a1 1 0 001 1h2.17l3.062 6.579a.892.892 0 00-.005.01l-1.05 2.333A2 2 0 007 13.743h10.502a1 1 0 100-2H7l.67-1.486h9.043l4.226-7.38a1 1 0 10-1.736-.994l-3.65 6.374H8.289L4.446 0H1a1 1 0 00-1 1zm10 16a2 2 0 11-4 0 2 2 0 014 0zm6 2a2 2 0 100-4 2 2 0 000 4z" fill="#9B8869"/></svg>
